icons/archive-16.svg

<svg width="16" height="16" viewBox="0 0 16 16" xmlns="http://www.w3.org/2000/svg">
  <path fill-rule="evenodd" clip-rule="evenodd" d="M1.75 2.5C1.6837 2.5 1.62011 2.52634 1.57322 2.57322C1.52634 2.62011 1.5 2.6837 1.5 2.75V4.25C1.5 4.388 1.612 4.5 1.75 4.5H14.25C14.3163 4.5 14.3799 4.47366 14.4268 4.42678C14.4737 4.37989 14.5 4.3163 14.5 4.25V2.75C14.5 2.6837 14.4737 2.62011 14.4268 2.57322C14.3799 2.52634 14.3163 2.5 14.25 2.5H1.75ZM0 2.75C0 1.784 0.784 1 1.75 1H14.25C15.216 1 16 1.784 16 2.75V4.25C16 4.71413 15.8156 5.15925 15.4874 5.48744C15.1592 5.81563 14.7141 6 14.25 6H1.75C1.28587 6 0.840752 5.81563 0.512563 5.48744C0.184374 5.15925 0 4.71413 0 4.25L0 2.75ZM1.75 7C1.94891 7 2.13968 7.07902 2.28033 7.21967C2.42098 7.36032 2.5 7.55109 2.5 7.75V13.25C2.5 13.388 2.612 13.5 2.75 13.5H13.25C13.3163 13.5 13.3799 13.4737 13.4268 13.4268C13.4737 13.3799 13.5 13.3163 13.5 13.25V7.75C13.5 7.55109 13.579 7.36032 13.7197 7.21967C13.8603 7.07902 14.0511 7 14.25 7C14.4489 7 14.6397 7.07902 14.7803 7.21967C14.921 7.36032 15 7.55109 15 7.75V13.25C15 13.7141 14.8156 14.1592 14.4874 14.4874C14.1592 14.8156 13.7141 15 13.25 15H2.75C2.28587 15 1.84075 14.8156 1.51256 14.4874C1.18437 14.1592 1 13.7141 1 13.25V7.75C1 7.55109 1.07902 7.36032 1.21967 7.21967C1.36032 7.07902 1.55109 7 1.75 7ZM6.25 8C6.05109 8 5.86032 8.07902 5.71967 8.21967C5.57902 8.36032 5.5 8.55109 5.5 8.75C5.5 8.94891 5.57902 9.13968 5.71967 9.28033C5.86032 9.42098 6.05109 9.5 6.25 9.5H9.75C9.94891 9.5 10.1397 9.42098 10.2803 9.28033C10.421 9.13968 10.5 8.94891 10.5 8.75C10.5 8.55109 10.421 8.36032 10.2803 8.21967C10.1397 8.07902 9.94891 8 9.75 8H6.25Z"/>
</svg>

<svg xmlns="http://www.w3.org/2000/svg" width="16" height="16" viewBox="0 0 16 16"><path fill-rule="evenodd" d="M1.75 2.5a.25.25 0 00-.25.25v1.5c0 .138.112.25.25.25h12.5a.25.25 0 00.25-.25v-1.5a.25.25 0 00-.25-.25H1.75zM0 2.75C0 1.784.784 1 1.75 1h12.5c.966 0 1.75.784 1.75 1.75v1.5A1.75 1.75 0 0114.25 6H1.75A1.75 1.75 0 010 4.25v-1.5zM1.75 7a.75.75 0 01.75.75v5.5c0 .138.112.25.25.25h10.5a.25.25 0 00.25-.25v-5.5a.75.75 0 111.5 0v5.5A1.75 1.75 0 0113.25 15H2.75A1.75 1.75 0 011 13.25v-5.5A.75.75 0 011.75 7zm4.5 1a.75.75 0 000 1.5h3.5a.75.75 0 100-1.5h-3.5z"/></svg>
